src/assets/projetos/carregar-mais.svg

<svg width="20" height="20" viewBox="0 0 20 20" fill="none" xmlns="http://www.w3.org/2000/svg">
<g clip-path="url(#clip0_78_74)">
<path d="M2.5 18.75C2.5 19.4408 1.94 20 1.25 20C0.560833 20 0 19.4408 0 18.75C0 18.0592 0.560833 17.5 1.25 17.5C1.94 17.5 2.5 18.0592 2.5 18.75ZM13.8908 3.12583L13.3725 2.19417C12.7617 2.59083 12.2408 3.08167 11.8058 3.66833L12.7475 4.19417C13.0733 3.77667 13.4533 3.42083 13.8908 3.12583ZM3.4975 17.9792C3.56917 18.2008 3.60833 18.4367 3.60833 18.6808C3.60833 18.8033 3.59833 18.9242 3.58 19.0417C4.255 18.9492 4.87833 18.8075 5.44917 18.6167L5.1325 17.6042C4.63667 17.7717 4.09333 17.8967 3.4975 17.9792ZM8.385 11.755L13.025 8.5475L9.56333 12.2017L13.1708 15.4142L15.8333 5.65083L5.1825 10.9767L8.385 11.755ZM16.4033 1.0875C15.6317 1.21417 14.9358 1.41417 14.3133 1.68833L14.8317 2.62C15.3408 2.405 15.9108 2.24583 16.5458 2.14167C16.4467 1.88583 16.3917 1.60833 16.3917 1.31833L16.4033 1.0875ZM18.7492 0C18.06 0 17.5 0.559167 17.5 1.25C17.5 1.94083 18.06 2.5 18.7492 2.5C19.4392 2.5 20 1.94083 20 1.25C20 0.559167 19.4392 0 18.7492 0ZM7.5 16.1158C7.10083 16.5358 6.6525 16.9 6.12 17.1833L6.44167 18.2108C6.825 18.0217 7.1725 17.7975 7.50083 17.5517V16.1158H7.5ZM9.17667 16.4842L10.6225 14.3358L9.17667 13.0483V16.4842ZM12.17 5.095L11.2383 4.57417C10.9325 5.155 10.7033 5.78333 10.5125 6.43333L11.87 5.7675C11.9625 5.53833 12.0575 5.30917 12.17 5.095Z" fill="white"/>
</g>
<defs>
<clipPath id="clip0_78_74">
<rect width="20" height="20" fill="white"/>
</clipPath>
</defs>
</svg>

<svg xmlns="http://www.w3.org/2000/svg" width="20" height="20" fill="none"><g clip-path="url(#a)"><path fill="#fff" d="M2.5 18.75a1.25 1.25 0 1 1-2.5 0 1.25 1.25 0 0 1 2.5 0ZM13.89 3.126l-.518-.932a6.008 6.008 0 0 0-1.566 1.474l.942.526a4.955 4.955 0 0 1 1.143-1.068ZM3.498 17.979a2.277 2.277 0 0 1 .083 1.063 10.31 10.31 0 0 0 1.87-.425l-.317-1.013a8.924 8.924 0 0 1-1.635.375Zm4.888-6.224 4.64-3.208-3.462 3.655 3.608 3.212 2.662-9.763-10.65 5.326 3.202.778Zm8.018-10.668a8.64 8.64 0 0 0-2.09.601l.519.932a7.523 7.523 0 0 1 1.714-.478 2.275 2.275 0 0 1-.154-.824l.011-.23ZM18.75 0a1.25 1.25 0 1 0 .001 2.5 1.25 1.25 0 0 0 0-2.5ZM7.5 16.116c-.4.42-.848.784-1.38 1.067l.322 1.028c.383-.19.73-.413 1.059-.66v-1.435H7.5Zm1.677.368 1.446-2.148-1.446-1.288v3.436ZM12.17 5.095l-.932-.52c-.306.58-.535 1.208-.726 1.858l1.358-.665a7.42 7.42 0 0 1 .3-.673Z"/></g><defs><clipPath id="a"><path fill="#fff" d="M0 0h20v20H0z"/></clipPath></defs></svg>
